icons/smartwatc-circle-timeB.svg

<svg width="24" height="24" viewBox="0 0 24 24" fill="none" xmlns="http://www.w3.org/2000/svg">
<path d="M12 19.4C16.0316 19.4 19.3 16.1317 19.3 12.1C19.3 8.06837 16.0316 4.80005 12 4.80005C7.96827 4.80005 4.69995 8.06837 4.69995 12.1C4.69995 16.1317 7.96827 19.4 12 19.4Z" fill="black"/>
<path fill-rule="evenodd" clip-rule="evenodd" d="M12 5.55005C8.38249 5.55005 5.44995 8.48258 5.44995 12.1C5.44995 15.7175 8.38249 18.65 12 18.65C15.6174 18.65 18.55 15.7175 18.55 12.1C18.55 8.48258 15.6174 5.55005 12 5.55005ZM3.94995 12.1C3.94995 7.65416 7.55406 4.05005 12 4.05005C16.4458 4.05005 20.05 7.65416 20.05 12.1C20.05 16.5459 16.4458 20.15 12 20.15C7.55406 20.15 3.94995 16.5459 3.94995 12.1Z" fill="black"/>
<path fill-rule="evenodd" clip-rule="evenodd" d="M12 8.45007C12.4142 8.45007 12.75 8.78586 12.75 9.20007V12.1001C12.75 12.2616 12.8347 12.485 12.9861 12.7255L14.4303 14.1697C14.7232 14.4626 14.7232 14.9375 14.4303 15.2304C14.1374 15.5233 13.6626 15.5233 13.3697 15.2304L11.8172 13.6779L11.776 13.6161C11.5511 13.2787 11.25 12.7255 11.25 12.1001V9.20007C11.25 8.78586 11.5858 8.45007 12 8.45007Z" fill="white"/>
<path fill-rule="evenodd" clip-rule="evenodd" d="M9.39985 3.15002C9.11407 3.15002 8.84985 3.41424 8.84985 3.70002V6.00002C8.84985 6.41424 8.51407 6.75002 8.09985 6.75002C7.68564 6.75002 7.34985 6.41424 7.34985 6.00002V3.70002C7.34985 2.58581 8.28564 1.65002 9.39985 1.65002H14.8532L14.9059 1.65756C15.9185 1.80222 16.7499 2.57207 16.7499 3.70002V6.00002C16.7499 6.41424 16.4141 6.75002 15.9999 6.75002C15.5856 6.75002 15.2499 6.41424 15.2499 6.00002V3.70002C15.2499 3.43895 15.0945 3.21646 14.7396 3.15002H9.39985Z" fill="black"/>
<path fill-rule="evenodd" clip-rule="evenodd" d="M8 17.4501C8.41421 17.4501 8.75 17.7859 8.75 18.2001V20.3001C8.75 20.5859 9.01421 20.8501 9.3 20.8501H14.7C14.9858 20.8501 15.25 20.5859 15.25 20.3001V18.2001C15.25 17.7859 15.5858 17.4501 16 17.4501C16.4142 17.4501 16.75 17.7859 16.75 18.2001V20.3001C16.75 21.4143 15.8142 22.3501 14.7 22.3501H9.3C8.18579 22.3501 7.25 21.4143 7.25 20.3001V18.2001C7.25 17.7859 7.58579 17.4501 8 17.4501Z" fill="black"/>
</svg>

<svg xmlns="http://www.w3.org/2000/svg" fill="none" viewBox="0 0 24 24">
  <path fill="#000" d="M12 19.4a7.3 7.3 0 1 0 0-14.6 7.3 7.3 0 0 0 0 14.6Z"/>
  <path fill="#000" fill-rule="evenodd" d="M12 5.55a6.55 6.55 0 1 0 0 13.1 6.55 6.55 0 0 0 0-13.1ZM3.95 12.1a8.05 8.05 0 1 1 16.1 0 8.05 8.05 0 0 1-16.1 0Z" clip-rule="evenodd"/>
  <path fill="#fff" fill-rule="evenodd" d="M12 8.45a.75.75 0 0 1 .75.75v2.9c0 .162.085.385.236.626l1.444 1.444a.75.75 0 0 1-1.06 1.06l-1.553-1.552-.041-.062c-.225-.337-.526-.89-.526-1.516V9.2a.75.75 0 0 1 .75-.75Z" clip-rule="evenodd"/>
  <path fill="#000" fill-rule="evenodd" d="M9.4 3.15a.575.575 0 0 0-.55.55V6a.75.75 0 1 1-1.5 0V3.7c0-1.114.936-2.05 2.05-2.05h5.453l.053.008c1.012.144 1.844.914 1.844 2.042V6a.75.75 0 0 1-1.5 0V3.7c0-.261-.155-.484-.51-.55H9.4ZM8 17.45a.75.75 0 0 1 .75.75v2.1c0 .286.264.55.55.55h5.4c.286 0 .55-.264.55-.55v-2.1a.75.75 0 0 1 1.5 0v2.1c0 1.114-.936 2.05-2.05 2.05H9.3a2.073 2.073 0 0 1-2.05-2.05v-2.1a.75.75 0 0 1 .75-.75Z" clip-rule="evenodd"/>
</svg>
